lib/brands/icons/youtube.svg

<svg xmlns="http://www.w3.org/2000/svg" fill="none" aria-hidden="true" viewBox="0 0 48 48"><g id="youtube-Icon"><path id="Shape" fill="#FF0000" d="M43.1642 14.4006C42.7041 12.6684 41.3487 11.3042 39.6277 10.8413C36.5084 10 24 10 24 10C24 10 11.4917 10 8.37226 10.8413C6.65129 11.3043 5.29587 12.6684 4.83584 14.4006C4 17.5403 4 24.0909 4 24.0909C4 24.0909 4 30.6415 4.83584 33.7812C5.29587 35.5134 6.65129 36.8207 8.37226 37.2837C11.4917 38.125 24 38.125 24 38.125C24 38.125 36.5083 38.125 39.6277 37.2837C41.3487 36.8207 42.7041 35.5134 43.1642 33.7812C44 30.6415 44 24.0909 44 24.0909C44 24.0909 44 17.5403 43.1642 14.4006ZM19.9091 30.0384V18.1434L30.3636 24.091L19.9091 30.0384Z"/></g></svg>

<svg xmlns="http://www.w3.org/2000/svg" fill="none" aria-hidden="true" viewBox="0 0 48 48"><path fill="red" d="M43.164 14.4a5.026 5.026 0 0 0-3.536-3.559C36.508 10 24 10 24 10s-12.508 0-15.628.841a5.026 5.026 0 0 0-3.536 3.56C4 17.54 4 24.09 4 24.09s0 6.55.836 9.69c.46 1.732 1.815 3.04 3.536 3.503 3.12.841 15.628.841 15.628.841s12.508 0 15.628-.841c1.72-.463 3.076-1.77 3.536-3.503.836-3.14.836-9.69.836-9.69s0-6.55-.836-9.69ZM19.91 30.039V18.143l10.455 5.948-10.455 5.947Z"/></svg>
